!!!COM: Anonymous
!!!OTL: De sartor nui sian maestri
!!!AGN: Song; Carnival song
!!!SCT: Ano3237
!!!SCA: Ano3237
!!!SMS: Canto dei sartori (Perugia G.20)
!!!folio:
!!!voices: 4
**kern	**text	**text	**text	**text	**text	**text	**kern	**text	**text	**text	**text	**text	**text	**kern	**text	**text	**text	**text	**text	**text	**kern	**text	**text	**text	**text	**text	**text
*staff4	*staff4	*staff4	*staff4	*staff4	*staff4	*staff4	*staff3	*staff3	*staff3	*staff3	*staff3	*staff3	*staff3	*staff2	*staff2	*staff2	*staff2	*staff2	*staff2	*staff2	*staff1	*staff1	*staff1	*staff1	*staff1	*staff1	*staff1
*Ivox	*	*	*	*	*	*	*Ivox	*	*	*	*	*	*	*Ivox	*	*	*	*	*	*	*Ivox	*	*	*	*	*	*
*I"Bassus	*	*	*	*	*	*	*I"Tenor	*	*	*	*	*	*	*I"Altus	*	*	*	*	*	*	*I"Superius	*	*	*	*	*	*
*I'B	*	*	*	*	*	*	*I'T	*	*	*	*	*	*	*I'A	*	*	*	*	*	*	*I'S	*	*	*	*	*	*
*clefF4	*	*	*	*	*	*	*clefGv2	*	*	*	*	*	*	*clefGv2	*	*	*	*	*	*	*clefG2	*	*	*	*	*	*
*k[]	*	*	*	*	*	*	*k[]	*	*	*	*	*	*	*k[]	*	*	*	*	*	*	*k[]	*	*	*	*	*	*
*M2/1	*	*	*	*	*	*	*M2/1	*	*	*	*	*	*	*M2/1	*	*	*	*	*	*	*M2/1	*	*	*	*	*	*
*met(C|)	*	*	*	*	*	*	*met(C|)	*	*	*	*	*	*	*met(C|)	*	*	*	*	*	*	*met(C|)	*	*	*	*	*	*
=1-	=1-	=1-	=1-	=1-	=1-	=1-	=1-	=1-	=1-	=1-	=1-	=1-	=1-	=1-	=1-	=1-	=1-	=1-	=1-	=1-	=1-	=1-	=1-	=1-	=1-	=1-	=1-
1G	De	Per	Quan-	Poi	Per	Ba-	1g	De	Per	Quan-	Poi	Per	Ba-	1d	De	Per	Quan-	Poi	Per	Ba-	1g	De	Per	Quan-	Poi	Per	Ba-
1G	sar-	ta-	-do el	pre-	don-	-sta	1g	sar-	ta-	-do el	pre-	don-	-sta	1d	sar-	ta-	-do el	pre-	don-	-sta	1g	sar-	ta-	-do el	pre-	don-	-sta
=2	=2	=2	=2	=2	=2	=2	=2	=2	=2	=2	=2	=2	=2	=2	=2	=2	=2	=2	=2	=2	=2	=2	=2	=2	=2	=2	=2
1D	-tor	-gliar	pan-	-ga-	-zel-	so-	1f	-tor	-gliar	pan-	-ga-	-zel-	so-	1d	-tor	-gliar	pan-	-ga-	-zel-	so-	1a	-tor	-gliar	pan-	-ga-	-zel-	so-
1G	nui	in	-no	-mo	-le et	-lo a-	1d	nui	in	-no	-mo	-le et	-lo a-	2r	.	.	.	.	.	.	1b	nui	in	-no	-mo	-le et	-lo a-
.	.	.	.	.	.	.	.	.	.	.	.	.	.	2g	nui	in	-no	-mo	-le et	-lo a-	.	.	.	.	.	.	.
=3	=3	=3	=3	=3	=3	=3	=3	=3	=3	=3	=3	=3	=3	=3	=3	=3	=3	=3	=3	=3	=3	=3	=3	=3	=3	=3	=3
1C	sian	pun-	non	dui o	per	-ver	1e	sian	pun-	non	dui o	per	-ver	1g	sian	pun-	non	dui o	per	-ver	1cc	sian	pun-	non	dui o	per	-ver
1D	ma-	-to et	e as-	tre	gar-	ve-	1f	ma-	-to et	e as-	tre	gar-	ve-	1d	ma-	-to et	e as-	tre	gar-	ve-	1a	ma-	-to et	e as-	tre	gar-	ve-
=4	=4	=4	=4	=4	=4	=4	=4	=4	=4	=4	=4	=4	=4	=4	=4	=4	=4	=4	=4	=4	=4	=4	=4	=4	=4	=4	=4
1G	-e-	be-	-su-	vol-	-zo-	-du-	1g	-e-	be-	-su-	vol-	-zo-	-du-	1d	-e-	be-	-su-	vol-	-zo-	-du-	1b	-e-	be-	-su-	vol-	-zo-	-du-
1G	-stri,	-ne,	-cto,	-te,	-ni	-to	1g	-stri,	-ne,	-cto,	-te,	-ni	-to	1d	-stri,	-ne,	-cto,	-te,	-ni	-to	1b	-stri,	-ne,	-cto,	-te,	-ni	-to
=5	=5	=5	=5	=5	=5	=5	=5	=5	=5	=5	=5	=5	=5	=5	=5	=5	=5	=5	=5	=5	=5	=5	=5	=5	=5	=5	=5
1.C	Che	La	Non	Le	Nui	Quan-	1.g	Che	La	Non	Le	Nui	Quan-	1.c	Che	La	Non	Le	Nui	Quan-	1.ee	Che	La	Non	Le	Nui	Quan-
2C	de	mi-	se	ma-	ta-	-ta	2g	de	mi-	se	ma-	ta-	-ta	2c	de	mi-	se	ma-	ta-	-ta	2ee	de	mi-	se	ma-	ta-	-ta
=6	=6	=6	=6	=6	=6	=6	=6	=6	=6	=6	=6	=6	=6	=6	=6	=6	=6	=6	=6	=6	=6	=6	=6	=6	=6	=6	=6
1C	ta-	-su-	po	-ni	-glia-	rob-	1g	ta-	-su-	po	-ni	-glia-	rob-	1c	ta-	-su-	po	-ni	-glia-	rob-	1ee	ta-	-su-	po	-ni	-glia-	rob-
1C	-gliar	-ra in	mai	so-	-mo om-	-ba	1g	-gliar	-ra in	mai	so-	-mo om-	-ba	1e	-gliar	-ra in	mai	so-	-mo om-	-ba	1ee	-gliar	-ra in	mai	so-	-mo om-	-ba
=7	=7	=7	=7	=7	=7	=7	=7	=7	=7	=7	=7	=7	=7	=7	=7	=7	=7	=7	=7	=7	=7	=7	=7	=7	=7	=7	=7
1D	sian	ma-	ben	-pra	-ne	vi	1f	sian	ma-	ben	-pra	-ne	vi	1a	sian	ma-	ben	-pra	-ne	vi	1dd	sian	ma-	ben	-pra	-ne	vi
2A	pron-	.	ta-	quel	ru-	po in-	2e	pron-	.	ta-	quel	ru-	po in-	1a	pron-	-no	ta-	quel	ru-	po in-	2cc	pron-	.	ta-	quel	ru-	po in-
2D	.	.	.	.	.	.	2f	.	.	.	.	.	.	.	.	.	.	.	.	.	[2dd	-ti et	.	-glia-	pan-	-bec-	-tra-
=8	=8	=8	=8	=8	=8	=8	=8	=8	=8	=8	=8	=8	=8	=8	=8	=8	=8	=8	=8	=8	=8	=8	=8	=8	=8	=8	=8
1G	.	.	-glia-	pan-	-bec-	-tra-	2.g	-ti et	.	-glia-	pan-	-bec-	-tra-	1d	-ti et	pi-	-glia-	pan-	-bec-	-tra-	4dd]	.	.	.	.	.	.
.	.	.	.	.	.	.	.	.	.	.	.	.	.	.	.	.	.	.	.	.	4cc	.	.	.	.	.	.
.	.	.	.	.	.	.	.	.	.	.	.	.	.	.	.	.	.	.	.	.	4b	.	.	.	.	.	.
.	.	.	.	.	.	.	4f	.	.	.	.	.	.	.	.	.	.	.	.	.	4a	.	.	.	.	.	.
2C	-ti et	-no	.	.	.	.	4e	.	.	.	.	.	.	2e	de-	.	.	.	.	.	2g	.	-no	.	.	.	.
.	.	.	.	.	.	.	4d	.	.	.	.	.	.	.	.	.	.	.	.	.	.	.	.	.	.	.	.
[2F	de-	pi-	.	.	.	.	[2c	de-	-no	.	.	.	.	[2f	.	-glia-	.	.	.	.	[2a	de-	pi-	.	.	.	.
=9	=9	=9	=9	=9	=9	=9	=9	=9	=9	=9	=9	=9	=9	=9	=9	=9	=9	=9	=9	=9	=9	=9	=9	=9	=9	=9	=9
2F]	.	.	.	.	.	.	2c]	.	.	.	.	.	.	2f]	.	.	.	.	.	.	4a]	.	.	.	.	.	.
.	.	.	.	.	.	.	.	.	.	.	.	.	.	.	.	.	.	.	.	.	4g	.	.	.	.	.	.
2C	.	.	.	.	.	.	2e	.	pi-	.	.	.	.	2g	.	.	.	.	.	.	1cc	.	-glia-	.	.	.	.
1G	.	-glia-	.	.	.	.	1d	.	-glia-	.	.	.	.	1g	.	.	.	.	.	.	.	.	.	.	.	.	.
.	.	.	.	.	.	.	.	.	.	.	.	.	.	.	.	.	.	.	.	.	2b	.	.	.	.	.	.
=10	=10	=10	=10	=10	=10	=10	=10	=10	=10	=10	=10	=10	=10	=10	=10	=10	=10	=10	=10	=10	=10	=10	=10	=10	=10	=10	=10
0C	-stri.	-mo;	-re;	-no	-ta;	-re	0c	-stri.	-mo;	-re;	-no	-ta;	-re	0g	-stri.	-mo;	-re;	-no	-ta;	-re	0cc	-stri.	-mo;	-re;	-no	-ta;	-re
=11	=11	=11	=11	=11	=11	=11	=11	=11	=11	=11	=11	=11	=11	=11	=11	=11	=11	=11	=11	=11	=11	=11	=11	=11	=11	=11	=11
1G	Se	Tu-	Fa-	Per-	Mae-	Non	1d	Se	Tu-	Fa-	Per-	Mae-	Non	1g	Se	Tu-	Fa-	Per-	Mae-	Non	1b	Se	Tu-	Fa-	Per-	Mae-	Non
1G	ce	-cti	-se	-che el	-stri	e	1d	ce	-cti	-se	-che el	-stri	e	1g	ce	-cti	-se	-che el	-stri	e	1b	ce	-cti	-se	-che el	-stri	e
=12	=12	=12	=12	=12	=12	=12	=12	=12	=12	=12	=12	=12	=12	=12	=12	=12	=12	=12	=12	=12	=12	=12	=12	=12	=12	=12	=12
1C	fos-	pan-	ta-	pe-	siam	mai un	1e	fos-	pan-	ta-	pe-	siam	mai un	1g	fos-	pan-	ta-	pe-	siam	mai un	1cc	fos-	pan-	ta-	pe-	siam	mai un
1C	-se	-ni	-glio	-lo	da	si	1e	-se	-ni	-glio	-lo	da	si	1g	-se	-ni	-glio	-lo	da	si	1cc	-se	-ni	-glio	-lo	da	si
=13	=13	=13	=13	=13	=13	=13	=13	=13	=13	=13	=13	=13	=13	=13	=13	=13	=13	=13	=13	=13	=13	=13	=13	=13	=13	=13	=13
1D	don-	per	tri-	spes-	far	so-	1f	don-	per	tri-	spes-	far	so-	1d	don-	per	tri-	spes-	far	so-	1a	don-	per	tri-	spes-	far	so-
1D	-ne al-	le	-sto et	-so	jup-	-ri-	1f	-ne al-	le	-sto et	-so	jup-	-ri-	1d	-ne al-	le	-sto et	-so	jup-	-ri-	1a	-ne al-	le	-sto et	-so	jup-	-ri-
=14	=14	=14	=14	=14	=14	=14	=14	=14	=14	=14	=14	=14	=14	=14	=14	=14	=14	=14	=14	=14	=14	=14	=14	=14	=14	=14	=14
1G	-cu-	sch-	bru-	vol-	-pu-	-gna-	1g	-cu-	sch-	bru-	vol-	-pu-	-gna-	1d	-cu-	sch-	bru-	vol-	-pu-	-gna-	1b	-cu-	sch-	bru-	vol-	-pu-	-gna-
1G	-ne	-ine,	-cto	-ta	-ni:	-to,	1g	-ne	-ine,	-cto	-ta	-ni:	-to,	1d	-ne	-ine,	-cto	-ta	-ni:	-to,	1b	-ne	-ine,	-cto	-ta	-ni:	-to,
=15	=15	=15	=15	=15	=15	=15	=15	=15	=15	=15	=15	=15	=15	=15	=15	=15	=15	=15	=15	=15	=15	=15	=15	=15	=15	=15	=15
1.A	Per	Do-	Se	In-	Chi	Che	1.c	Per	Do-	Se	In-	Chi	Che	2r	.	.	.	.	.	.	1.cc	Per	Do-	Se	In-	Chi	Che
.	.	.	.	.	.	.	.	.	.	.	.	.	.	1.e	Per ve-	Do- -pie	Se non	In- -gan-	Chi a	Che lo	.	.	.	.	.	.	.
2A	ve-	-pie	non	-gan-	a	lo	2c	ve-	-pie	non	-gan-	a	lo	.	.	.	.	.	.	.	2cc	ve-	-pie	non	-gan-	a	lo
=16	=16	=16	=16	=16	=16	=16	=16	=16	=16	=16	=16	=16	=16	=16	=16	=16	=16	=16	=16	=16	=16	=16	=16	=16	=16	=16	=16
1A	-stir-	sol	se las-	-na co-	va-	non	1c	-stir-	sol	se las-	-na co-	va-	non	1e	-stir-	-sol	se las-	-na co-	va-	non	1cc	-stir-	sol	se las-	-na co-	va-	non
2G	-si,	pan-	-sa	-mo	-si, in	fac-	2d	-si,	pan-	-sa	-mo	-si, in	fac-	2g	-si,	pan-	-sa	-mo	-si, in	fac-	2b	-si,	pan-	-sa	-mo	-si, in	fac-
2A	qual-	-no	ra-	mul-	ma-	-cia-	[2c	qual-	-no	ra-	mul-	mani	-cia-	2e	qual-	-no	ra-	mul-	ma-	-cia-	[2a	qual-	-no	ra-	mul-	mani	-cia-
=17	=17	=17	=17	=17	=17	=17	=17	=17	=17	=17	=17	=17	=17	=17	=17	=17	=17	=17	=17	=17	=17	=17	=17	=17	=17	=17	=17
2F	.	.	.	.	-ni	.	2c]	.	.	.	.	.	.	2f	.	.	.	.	-ni	.	2a]	.	.	.	.	.	.
2E	-che	mi-	-su-	-ti	cel	-mo	2G	-che	mi-	-su-	-ti	cel	-mo	2e	-che	mi-	-su-	-ti	cel	-mo	2g	-che	mi-	-su-	-ti	cel	-mo
1D	ve-	-ctia-	-cta-	san-	me-	sta-	2.A	ve-	-ctia-	-cta-	san-	me-	sta-	1d	ve-	-ctia-	-cta-	san-	me-	sta-	1f	ve-	-ctia-	-cta-	san-	me-	sta-
.	.	.	.	.	.	.	4B	.	.	.	.	.	.	.	.	.	.	.	.	.	.	.	.	.	.	.	.
=18	=18	=18	=18	=18	=18	=18	=18	=18	=18	=18	=18	=18	=18	=18	=18	=18	=18	=18	=18	=18	=18	=18	=18	=18	=18	=18	=18
0C	-ste,	-mo:	-re:	-no:	-cta,	-re:	0c	-ste,	-mo:	-re:	-no:	-cta,	-re:	0g	-ste,	-mo:	-re:	-no:	-cta,	-re:	0e	-ste,	-mo:	-re:	-no:	-cta,	-re:
=19	=19	=19	=19	=19	=19	=19	=19	=19	=19	=19	=19	=19	=19	=19	=19	=19	=19	=19	=19	=19	=19	=19	=19	=19	=19	=19	=19
1G	Las-	Poi	Quan-	No-	Et	Ma	1d	Las-	Poi	Quan-	No-	Et	Ma	1g	Las-	Poi	Quan-	No-	Et	Ma	1b	Las-	Poi	Quan-	No-	Et	Ma
1G	-sa	coll'-	-do e as-	-stro	se	bi-	1d	-sa	coll'-	-do e as-	-stro	se	bi-	1g	-sa	coll'-	-do e as-	-stro	se	bi-	1b	-sa	coll'-	-do e as-	-stro	se	bi-
=20	=20	=20	=20	=20	=20	=20	=20	=20	=20	=20	=20	=20	=20	=20	=20	=20	=20	=20	=20	=20	=20	=20	=20	=20	=20	=20	=20
1C	pur	-oc-	-su-	s'av-	pur	-so-	1e	pur	-oc-	-su-	s'av-	pur	-so-	1g	pur	-oc-	-su-	s'av-	pur	-so-	1cc	pur	-oc-	-su-	s'av-	pur	-so-
1C	a	-chi	-cto	-via	ne a-	-gna	1e	a	-chi	-cto	-via	ne a-	-gna	1g	a	-chi	-cto	-via	ne a-	-gna	1cc	a	-chi	-cto	-via	ne a-	-gna
=21	=21	=21	=21	=21	=21	=21	=21	=21	=21	=21	=21	=21	=21	=21	=21	=21	=21	=21	=21	=21	=21	=21	=21	=21	=21	=21	=21
1D	nui	nui	se	pur	-ves-	o-	1f	nui	nui	se	pur	-ves-	o-	1d	nui	nui	se	pur	-ves-	o-	1a	nui	nui	se	pur	-ves-	o-
1D	pi-	guar-	po	el	-sen	-pe-	1f	pi-	guar-	po	el	-sen	-pe-	1d	pi-	guar-	po	el	-sen	-pe-	1a	pi-	guar-	po	el	-sen	-pe-
=22	=22	=22	=22	=22	=22	=22	=22	=22	=22	=22	=22	=22	=22	=22	=22	=22	=22	=22	=22	=22	=22	=22	=22	=22	=22	=22	=22
1G	-glia-	-da-	fa-	dan-	fre-	-ra-	1g	-glia-	-da-	fa-	dan-	fre-	-ra-	1d	-glia-	-da-	fa-	dan-	fre-	-ra-	1b	-glia-	-da-	fa-	dan-	fre-	-ra-
1G	-re	-mo	-re	-no	-cta,	-re	1g	-re	-mo	-re	-no	-cta,	-re	1d	-re	-mo	-re	-no	-cta,	-re	1b	-re	-mo	-re	-no	-cta,	-re
=23	=23	=23	=23	=23	=23	=23	=23	=23	=23	=23	=23	=23	=23	=23	=23	=23	=23	=23	=23	=23	=23	=23	=23	=23	=23	=23	=23
1.A	La	Se	Tu-	Se	Ser-	Un'-	1.c	La	Se	Tu-	Se	Ser-	Un'-	2r	.	.	.	.	.	.	1.cc	La	Se	Tu-	Se	Ser-	Un'-
.	.	.	.	.	.	.	.	.	.	.	.	.	.	1.e	La me-	Se gli e	Tu- -cti li	Se guas-	Ser- -vi-	Un'- al-	.	.	.	.	.	.	.
2A	me-	gli e	-cti li	guas-	-vi-	-al-	2c	me-	gli e	-cti li	guas-	-vi-	-al-	.	.	.	.	.	.	.	2cc	me-	gli e	-cti li	guas-	-vi-	-al-
=24	=24	=24	=24	=24	=24	=24	=24	=24	=24	=24	=24	=24	=24	=24	=24	=24	=24	=24	=24	=24	=24	=24	=24	=24	=24	=24	=24
1A	-su-	den-	ta-	-tasse-	-ri-	-tra ar-	1c	-su-	den-	ta-	-tasse-	-ri-	-tra ar-	1e	-su-	den-	-ta-	-tasse-	-ri-	-tra ar-	1cc	-su-	den-	ta-	-tasse-	-ri-	-tra ar-
2G	-ra	-tro	-gli, et	-mo	-li	-te in-	2d	-ra	-tro	-gli, et	-mo	-li	-te in-	2g	-ra	-tro	-gli, et	-mo	-li	-te in-	2b	-ra	-tro	-gli, et	-mo	-li	-te in-
2A	de	ta-	fan-	qual-	be-	-ver-	[2c	de	ta-	fan-	qual-	be-	-ver-	2e	de	ta-	fan-	qual-	be-	-ver-	[2a	de	ta-	fan-	qual-	be-	-ver-
=25	=25	=25	=25	=25	=25	=25	=25	=25	=25	=25	=25	=25	=25	=25	=25	=25	=25	=25	=25	=25	=25	=25	=25	=25	=25	=25	=25
2F	.	.	.	.	.	.	2c]	.	.	.	.	.	.	2f	.	.	.	.	.	.	2a]	.	.	.	.	.	.
2E	soe	-glio ho-	-si	-che	-ne et	-so	2G	soe	-glio ho-	-si	-che	-ne et	-so	2e	soe	-glio ho-	-si	-che	-ne et	-so	2g	soe	-glio ho-	-si	-che	-ne et	-so
1D	ve-	-nes-	pre-	ve-	pre-	que-	2.A	ve-	-nes-	pre-	ve-	pre-	que-	1d	ve-	-nes-	pre-	ve-	pre-	que-	1f	ve-	-nes-	pre-	ve-	pre-	que-
.	.	.	.	.	.	.	4B	.	.	.	.	.	.	.	.	.	.	.	.	.	.	.	.	.	.	.	.
=26	=26	=26	=26	=26	=26	=26	=26	=26	=26	=26	=26	=26	=26	=26	=26	=26	=26	=26	=26	=26	=26	=26	=26	=26	=26	=26	=26
0C	-ste:	-to.&	-sto.&	-ste.&	-sto.&	-sti.&	0c	-ste:	-to.&	-sto.&	-ste.&	-sto.&	-sti.&	0g	-ste:	-to.&	-sto.&	-ste.&	-sto.&	-sti.&	0e	-ste:	-to.&	-sto.&	-ste.&	-sto.&	-sti.&
=27	=27	=27	=27	=27	=27	=27	=27	=27	=27	=27	=27	=27	=27	=27	=27	=27	=27	=27	=27	=27	=27	=27	=27	=27	=27	=27	=27
*M2/1	*	*	*	*	*	*	*M2/1	*	*	*	*	*	*	*M2/1	*	*	*	*	*	*	*M2/1	*	*	*	*	*	*
*met(3)	*	*	*	*	*	*	*met(3)	*	*	*	*	*	*	*met(3)	*	*	*	*	*	*	*met(3)	*	*	*	*	*	*
0CV	Se	.	.	.	.	.	0g	Se	.	.	.	.	.	0c	Se	.	.	.	.	.	0ee	Se	.	.	.	.	.
1CZ	vo-	.	.	.	.	.	1g	vo-	.	.	.	.	.	1c	vo-	.	.	.	.	.	1ee	vo-	.	.	.	.	.
=28	=28	=28	=28	=28	=28	=28	=28	=28	=28	=28	=28	=28	=28	=28	=28	=28	=28	=28	=28	=28	=28	=28	=28	=28	=28	=28	=28
0CV	-les-	.	.	.	.	.	0g	-les-	.	.	.	.	.	0c	-les-	.	.	.	.	.	0ee	-les-	.	.	.	.	.
1FZ	-se	.	.	.	.	.	1a	-se	.	.	.	.	.	1c	-se	.	.	.	.	.	1ff	-se	.	.	.	.	.
=29	=29	=29	=29	=29	=29	=29	=29	=29	=29	=29	=29	=29	=29	=29	=29	=29	=29	=29	=29	=29	=29	=29	=29	=29	=29	=29	=29
0CV	fa- -re	.	.	.	.	.	1.g	fa-	.	.	.	.	.	0c	fa- -re	.	.	.	.	.	1.ee	fa-	.	.	.	.	.
.	.	.	.	.	.	.	2f	-re	.	.	.	.	.	.	.	.	.	.	.	.	2dd	-re	.	.	.	.	.
1CZ	-ta-	.	.	.	.	.	1e	ta-	.	.	.	.	.	1g	-ta-	.	.	.	.	.	1cc	ta-	.	.	.	.	.
=30	=30	=30	=30	=30	=30	=30	=30	=30	=30	=30	=30	=30	=30	=30	=30	=30	=30	=30	=30	=30	=30	=30	=30	=30	=30	=30	=30
0GV	-glia-	.	.	.	.	.	0d	-glia-	.	.	.	.	.	0g	-glia-	.	.	.	.	.	0b	-glia-	.	.	.	.	.
1GZ	-re,	.	.	.	.	.	1d	-re,	.	.	.	.	.	1g	-re,	.	.	.	.	.	1b	-re,	.	.	.	.	.
=31	=31	=31	=31	=31	=31	=31	=31	=31	=31	=31	=31	=31	=31	=31	=31	=31	=31	=31	=31	=31	=31	=31	=31	=31	=31	=31	=31
0GV	Ven-	.	.	.	.	.	0B	Ven-	.	.	.	.	.	0g	Ven-	.	.	.	.	.	0dd	Ven-	.	.	.	.	.
1GZ	-ga	.	.	.	.	.	1B	-ga	.	.	.	.	.	1g	-ga	.	.	.	.	.	1dd	-ga	.	.	.	.	.
=32	=32	=32	=32	=32	=32	=32	=32	=32	=32	=32	=32	=32	=32	=32	=32	=32	=32	=32	=32	=32	=32	=32	=32	=32	=32	=32	=32
0GV	da	.	.	.	.	.	0d	da	.	.	.	.	.	0g	da	.	.	.	.	.	0b	da	.	.	.	.	.
1GZ	nui	.	.	.	.	.	1d	nui	.	.	.	.	.	1g	nui	.	.	.	.	.	1b	nui	.	.	.	.	.
=33	=33	=33	=33	=33	=33	=33	=33	=33	=33	=33	=33	=33	=33	=33	=33	=33	=33	=33	=33	=33	=33	=33	=33	=33	=33	=33	=33
0CV	che	.	.	.	.	.	1.e	che	.	.	.	.	.	0g	che	.	.	.	.	.	1.cc	che	.	.	.	.	.
.	.	.	.	.	.	.	2d	sa-	.	.	.	.	.	.	.	.	.	.	.	.	2b	sa-	.	.	.	.	.
1FZ	sa-	.	.	.	.	.	1c	-piam	.	.	.	.	.	1f	sa-	.	.	.	.	.	2a	-piam	.	.	.	.	.
.	.	.	.	.	.	.	.	.	.	.	.	.	.	.	.	.	.	.	.	.	2g	.	.	.	.	.	.
=34	=34	=34	=34	=34	=34	=34	=34	=34	=34	=34	=34	=34	=34	=34	=34	=34	=34	=34	=34	=34	=34	=34	=34	=34	=34	=34	=34
1GV	piam	.	.	.	.	.	1B	fa-	.	.	.	.	.	1d	piam	.	.	.	.	.	0g	fa-	.	.	.	.	.
0DZ	fa-	.	.	.	.	.	0A	.	.	.	.	.	.	0d	fa-	.	.	.	.	.	.	.	.	.	.	.	.
.	.	.	.	.	.	.	.	.	.	.	.	.	.	.	.	.	.	.	.	.	1f#i	.	.	.	.	.	.
=35	=35	=35	=35	=35	=35	=35	=35	=35	=35	=35	=35	=35	=35	=35	=35	=35	=35	=35	=35	=35	=35	=35	=35	=35	=35	=35	=35
0.dl	-re.	.	.	.	.	.	0.Gl	-re.	.	.	.	.	.	0.Bl	-re.	.	.	.	.	.	0.gl	-re.	.	.	.	.	.
==	==	==	==	==	==	==	==	==	==	==	==	==	==	==	==	==	==	==	==	==	==	==	==	==	==	==	==
*-	*-	*-	*-	*-	*-	*-	*-	*-	*-	*-	*-	*-	*-	*-	*-	*-	*-	*-	*-	*-	*-	*-	*-	*-	*-	*-	*-
!!!RDF**kern: l=long note in original notation
!!!RDF**kern: i=editorial accidental
!!!ENC: Jesse Rodin 6 Dec 2019
!!!END: 2019/12/08/
!!!EED: Jesse Rodin
!!!EEV: 2019/12/10/
!!!ONB: Translated from MusicXML and edited on 2019/12/10/ by Craig Sapp
!!muse2ps: C^@{COM}\n@{SMS}^v200,200,200,105z18l2400t300c80I100
